X:1
T:Title
%%score { ( 1 2 5 ) | ( 3 4 ) }
L:1/8
Q:1/4=100
M:4/4
K:Bb
V:1 treble nm="Grand Piano"
V:2 treble 
V:5 treble 
V:3 bass 
V:4 bass 
V:1
 B4 z4 | d4 B4 | c4 z4 | G4[K:bass] F4 | B4 z2 .B2 | d4 B4 | .d2 .=B2 z4 | [Ec]6[K:bass] z2 | %8
w: J.~Lincoln~Hall||||||||
 z2 z d dded | d4 G4 | c4 z4 | c4 F4 | B4 z4 | [F,DF]2 [DB]2 [Ff]2 [Ge]2 | d3 B d2 c2 | [DB]6 z2 | %16
w: ||||||||
 B3 c d2 F2 | G B3 g b3 | c3 d e2 c2 | A c3 a c'3 | f3 f e2 d2 | [Gc]2 G2 A2 B2 | %22
w: ||||||
 [=Ed]3 [Ec] [Ed]2 [Ec]2 | c2 c'd' e'c'af | B3 c d2 F2 | G B3 g b3 | c3 d e2 c2 | A c3 a c'3 | %28
w: ||||||
 f3 f e2 d2 | [Gc]2 G2 A2 B2 | f3 [GBe] [Bd]2 [Fc]2 | [DFB]6 z2 |] %32
w: ||||
V:2
 [B,DF]2 .[B,DF]2 [B,D]2 .[B,DFB]2 | [DF]2 [DF]2 [DF]2 [DF]2 | z2 z B AGFE | %3
 _D2[K:bass] [=E,D]2 [F,=D]2 [F,D]2 | [B,DF]2 .[B,DF]2 [B,D]2 [B,D]-[B,Dc] | z2 G2 z2 G2 | %6
 =E-[Ec]E-[Ec] [Ed]2 [Ec]2 | z2[K:bass] F,2 G,2 A,2 | d4 z4 | z2 G2 z2 D2 | =E2 z c ccdc | %11
 z2 E2 z2 E2 | D2 z B BB .[_DA]2 | x8 | x8 | x8 | x8 | x8 | x8 | x8 | x8 | x8 | x8 | x8 | x8 | x8 | %26
 x8 | x8 | x8 | x8 | x8 | x8 |] %32
V:3
 B,,2 z F z F z[K:treble] c | [B,,B,]2 [B,,B,]2 [B,,B,]2 [B,,B,]2 | %2
 [F,A,E]2 [F,A,]2 [F,A,E]2 .[F,A,E]2 | [B,,=E,]2 B,,2 B,,2 B,,2 | B,,2 z F z F B,,2 | %5
 [G,B,DG]2 [G,B,D]2 [G,B,DG]2[K:bass] [G,B,D]2 | [C,B,]2 [C,B,]2 [C,B,]2 [C,B,]2 | %7
 [F,A,]2 F,,2 G,,2 A,,2 | [B,DF]2 [B,D]2 [A,C^F]2 [A,CF]2 | %9
 [G,B,DG]2[K:bass] [G,B,D]2 [G,B,D]2 [G,B,]2 | [C,B,]2 [C,B,]2 [C,B,]2 [C,B,]2 | %11
 [F,A,E]2 [F,A,]2 [F,A,E]2 [F,A,]2 | [B,,F,]2 [B,,F,]2 [B,,=E,]2 z G | %13
 B,,2 [B,,F,]2 [D,B,]2 [E,B,]2 | [F,B,F]3 [F,B,D] [F,B,F]2 [F,A,E]2 | [B,,B,]6 z2 | %16
 [B,DF]3 [B,DF] [B,DF]2[K:bass] [B,D]2 | [E,B,E] [E,G,E]3[K:treble] [EBe] [EGe]3 | %18
 [F,A,F]3 [F,B,F] [F,CF]2 [F,A,F]2 | [F,CF] [F,A,F]3 [Fcf] [FAf]3 | %20
 [B,DF]3 [B,DF] [A,CF]2 [B,DF]2 | [E,E]2 [E,B,E]2 [G,B,=E]2 [G,B,E]2 | %22
 [C,B,]3 [C,B,] [C,B,]2 [C,B,]2 | [F,A,F]2 z2 z4 | [B,DF]3 [B,DF] [B,DF]2[K:bass] [B,D]2 | %25
 [E,B,E] [E,G,E]3[K:treble] [EBe] [EGe]3 | [F,A,F]3 [F,B,F] [F,CF]2 [F,A,F]2 | %27
 [F,CF] [F,A,F]3 [Fcf] [FAf]3 | [B,DF]3 [B,DF] [A,CF]2 [B,DF]2 | %29
 [E,E]2 [E,B,E]2 [G,B,=E]2 [G,CE]2 | [F,B,DF]3 [E,B,] [F,B,F]2 [F,A,E]2 | [B,,B,]6 z2 |] %32
V:4
 z2 B,,2 B,,2 B,,2[K:treble] | x8 | x8 | x8 | z2 B,,2 B,,2 z2 | x6[K:bass] x2 | x8 | x8 | x8 | %9
 x2[K:bass] x6 | x8 | x8 | z4 z2 [B,,=E,]2 | x8 | x8 | x8 | x6[K:bass] x2 | x4[K:treble] x4 | x8 | %19
 x8 | x8 | x8 | x8 | x8 | x6[K:bass] x2 | x4[K:treble] x4 | x8 | x8 | x8 | x8 | x8 | x8 |] %32
V:5
 x8 | x8 | z2 E2 z4 | x2[K:bass] x6 | x8 | x8 | x8 | x2[K:bass] x6 | z2 F2 z4 | x8 | z2 =E2 E2 E2 | %11
 x8 | z2 D2 _D2 z2 | x8 | x8 | x8 | x8 | x8 | x8 | x8 | x8 | x8 | x8 | x8 | x8 | x8 | x8 | x8 | %28
 x8 | x8 | x8 | x8 |] %32

